icons/fourx4.svg

<svg width="48" height="48" viewBox="0 0 48 48" fill="none" xmlns="http://www.w3.org/2000/svg">
<path d="M16.8367 22.6543C16.6223 23.4545 15.7998 23.9294 14.9996 23.715C14.1994 23.5005 13.7245 22.678 13.9389 21.8778C14.1534 21.0776 14.9759 20.6028 15.7761 20.8172C16.5763 21.0316 17.0511 21.8541 16.8367 22.6543Z" fill="black"/>
<path d="M32.3863 28.3737C33.1865 28.5881 34.009 28.1132 34.2234 27.313C34.4378 26.5128 33.9629 25.6903 33.1627 25.4759C32.3625 25.2615 31.54 25.7364 31.3256 26.5366C31.1112 27.3368 31.5861 28.1593 32.3863 28.3737Z" fill="black"/>
<path fill-rule="evenodd" clip-rule="evenodd" d="M13.2065 14.9523L14.6553 15.3405L14.5227 15.8355L12.8381 17.0385C12.2718 17.4428 11.8638 18.0314 11.6837 18.7035L10.3941 23.5162C10.0418 24.8312 10.6201 26.1762 11.7253 26.8521L10.8207 30.2284C10.6777 30.7618 10.9943 31.3102 11.5278 31.4531L15.3915 32.4884C15.9249 32.6313 16.4733 32.3147 16.6162 31.7813L17.4892 28.5232L27.0043 31.0727C27.0047 31.0728 27.0052 31.0729 27.0056 31.073L28.3015 31.4203L27.4285 34.6784C27.2856 35.2119 27.6022 35.7602 28.1356 35.9032L31.9993 36.9384C32.5328 37.0814 33.0812 36.7648 33.2241 36.2313L34.1791 32.6674C35.2557 32.4457 36.1702 31.6384 36.4741 30.5043L37.7942 25.5777C37.946 25.011 37.9284 24.4122 37.7435 23.8555L37.0264 21.6968C36.982 21.5632 36.9287 21.4341 36.8672 21.3099L36.8716 21.2933L38.3205 21.6816C39.3875 21.9675 40.4841 21.3343 40.77 20.2674L41.6759 16.8866C41.9618 15.8197 41.3286 14.723 40.2617 14.4371L38.7727 14.0382C38.91 12.606 37.9979 11.2424 36.562 10.8576L20.1413 6.4577C18.7055 6.07297 17.2337 6.7979 16.6366 8.1068L15.1476 7.70783C14.0807 7.42195 12.984 8.05511 12.6981 9.12205L11.7922 12.5028C11.5064 13.5697 12.1395 14.6664 13.2065 14.9523ZM14.63 9.63968L16.0788 10.0279L15.173 13.4087L13.7241 13.0204L14.63 9.63968ZM28.4879 29.3997L33.3175 30.6938C33.851 30.8367 34.3993 30.5201 34.5423 29.9867L35.8624 25.06C35.913 24.8711 35.9071 24.6716 35.8454 24.486L35.1284 22.3273C35.0224 22.0081 34.763 21.7636 34.4382 21.6766L16.9671 16.9952C16.6785 16.9179 16.3704 16.9737 16.1272 17.1473L14.0003 18.6661C13.8116 18.8009 13.6756 18.9971 13.6155 19.2211L12.326 24.0338C12.183 24.5673 12.4996 25.1156 13.0331 25.2586L17.8627 26.5527L19.1568 21.723C19.2997 21.1896 19.8481 20.873 20.3815 21.0159L29.0749 23.3453C29.6083 23.4883 29.9249 24.0366 29.782 24.5701L28.4879 29.3997ZM19.7946 27.0703L22.2094 27.7174L22.8777 25.223C23.0207 24.6895 23.569 24.3729 24.1025 24.5159C24.636 24.6588 24.9525 25.2071 24.8096 25.7406L24.1412 28.235L26.556 28.882L27.5913 25.0183L20.8298 23.2066L19.7946 27.0703ZM38.2951 15.9808L39.744 16.369L38.8382 19.7497L37.3893 19.3615L38.2951 15.9808ZM36.7515 14.0142C36.8945 13.4808 36.5779 12.9324 36.0444 12.7895L19.6237 8.38955C19.0904 8.24667 18.5423 8.56293 18.3991 9.096L16.846 14.8922L35.1986 19.8098L36.7515 14.0142Z" fill="black"/>
<path d="M11 34C9.67392 34 8.40215 34.5268 7.46447 35.4645C6.52678 36.4021 6 37.6739 6 39V41C6 41.5523 6.44772 42 7 42C7.55228 42 8 41.5523 8 41V39C8 38.2043 8.31607 37.4413 8.87868 36.8787C9.44129 36.3161 10.2044 36 11 36C11.7957 36 12.5587 36.3161 13.1213 36.8787C13.6839 37.4413 14 38.2043 14 39V40C14 40.5523 14.4477 41 15 41C15.5523 41 16 40.5523 16 40C16 39.4696 16.2107 38.9608 16.5858 38.5858C16.9609 38.2107 17.4696 38 18 38C18.5304 38 19.0391 38.2107 19.4142 38.5858C19.7893 38.9608 20 39.4696 20 40C20 40.5523 20.4477 41 21 41C21.5523 41 22 40.5523 22 40C22 39.7348 22.1054 39.4804 22.2929 39.2929C22.4804 39.1053 22.7348 39 23 39C23.2652 39 23.5196 39.1053 23.7071 39.2929C23.8946 39.4804 24 39.7348 24 40V41C24 41.5523 24.4477 42 25 42C25.0863 42 25.1701 41.989 25.25 41.9685C25.3299 41.989 25.4137 42 25.5 42H34.5C35.0523 42 35.5 41.5523 35.5 41C35.5 40.4477 35.0523 40 34.5 40H26C26 39.2043 25.6839 38.4413 25.1213 37.8787C24.5587 37.3161 23.7957 37 23 37C22.3472 37 21.7162 37.2128 21.2 37.6C21.0871 37.4494 20.9631 37.3062 20.8284 37.1716C20.0783 36.4214 19.0609 36 18 36C17.0954 36 16.2224 36.3064 15.5197 36.8618C15.2766 36.3478 14.9453 35.8742 14.5355 35.4645C13.5979 34.5268 12.3261 34 11 34Z" fill="black"/>
</svg>

<svg
  xmlns="http://www.w3.org/2000/svg"
  width="24"
  height="24"
  viewBox="0 0 24 24"
  fill="none"
  stroke="currentColor"
  stroke-width="2"
  stroke-linecap="round"
  stroke-linejoin="round"
>
  <path d="M16.837 22.654a1.5 1.5 0 1 1-2.898-.776 1.5 1.5 0 0 1 2.898.776" />
  <path d="M32.386 28.374a1.5 1.5 0 1 0 .777-2.898 1.5 1.5 0 0 0-.777 2.898" />
  <path
    fill-rule="evenodd"
    d="m13.207 14.952 1.448.389-.132.495-1.685 1.202a3 3 0 0 0-1.154 1.665l-1.29 4.813a3 3 0 0 0 1.331 3.336l-.904 3.376a1 1 0 0 0 .707 1.225l3.864 1.035a1 1 0 0 0 1.224-.707l.873-3.258 9.515 2.55h.002l1.296.347-.873 3.258a1 1 0 0 0 .707 1.225l3.863 1.035a1 1 0 0 0 1.225-.707l.955-3.564a3 3 0 0 0 2.295-2.163l1.32-4.926a3 3 0 0 0-.05-1.723l-.718-2.158a3 3 0 0 0-.159-.387l.005-.017 1.449.389a2 2 0 0 0 2.449-1.415l.906-3.38a2 2 0 0 0-1.414-2.45l-1.49-.399a3 3 0 0 0-2.21-3.18l-16.42-4.4a3 3 0 0 0-3.505 1.649l-1.49-.4a2 2 0 0 0-2.449 1.415l-.906 3.38a2 2 0 0 0 1.415 2.45M14.63 9.64l1.449.388-.906 3.38-1.449-.388zM28.488 29.4l4.83 1.294a1 1 0 0 0 1.224-.707l1.32-4.927a1 1 0 0 0-.017-.574l-.717-2.159a1 1 0 0 0-.69-.65l-17.47-4.682a1 1 0 0 0-.84.152L14 18.667a1 1 0 0 0-.384.554l-1.29 4.813a1 1 0 0 0 .707 1.225l4.83 1.294 1.294-4.83a1 1 0 0 1 1.224-.707l8.694 2.33a1 1 0 0 1 .707 1.224zm-8.693-2.33 2.414.647.669-2.494a1 1 0 0 1 1.932.518l-.669 2.494 2.415.647 1.035-3.864-6.761-1.811zm18.5-11.09 1.449.389-.906 3.38-1.449-.387zm-1.544-1.966a1 1 0 0 0-.707-1.224l-16.42-4.4a1 1 0 0 0-1.225.706l-1.553 5.796 18.353 4.918z"
    clip-rule="evenodd"
  />
  <path d="M11 34a5 5 0 0 0-5 5v2a1 1 0 1 0 2 0v-2a3 3 0 1 1 6 0v1a1 1 0 1 0 2 0 2 2 0 1 1 4 0 1 1 0 1 0 2 0 1 1 0 0 1 2 0v1a1 1 0 0 0 1.25.968q.12.032.25.032h9a1 1 0 1 0 0-2H26a3 3 0 0 0-4.8-2.4 4 4 0 0 0-5.68-.738A5 5 0 0 0 11 34" />
</svg>
